X:1
T:Title
%%score { ( 1 3 ) | ( 2 4 ) }
L:1/8
M:4/4
K:Bb
V:1 treble nm="Grand Piano"
V:3 treble 
V:2 bass 
V:4 bass 
V:1
 z4 z2[Q:1/4=100] [B,D]>[CE] | [DF]2 [DB]2 [Ge]2 [Fd]2 | c2 G4 ^F>G | A2 B2 c2 A2 |[M:3/4] G2 F4 | %5
[M:1/4] D>[CE] |[M:4/4] [DF]2 [DB]2 [Ec]2 [Fd]2 | [Ge]2 [EG]2 [Gd]2 [Gc]2 | B F3 F2 c2 | %9
[M:3/4] [DB]6 |[M:1/4] [DB]>[DB] |[M:4/4] A>B c4 c>c | [DB]>[Ec] [Fd]4 [FB]>[FA] | G c3 B2 G2 | %14
[M:3/4] [DF]6 |[M:1/4] [B,D]>[CE] |[M:4/4] [DF]2 [DF]2 [FB]>[FB] [FA]>[FB] | %17
[M:9/8] [EG]2 [Ec]- [Ec] [Ge]2- [Ge][Gd]>[Gc] |[M:5/4] B2 F2 F3 c3 |[M:3/4] B2- [EB-]2 [DB]2 |] %20
V:2
 z4 z2 [B,,F,]>[B,,F,] | [B,,B,]2 [B,,B,]2 [B,,B,]2 [B,,B,]2 | [E,G,E]2 [E,B,E]4 [E,B,E]>[E,B,E] | %3
 [F,A,E]2 [F,A,E]2 [F,A,E]2 [F,CE]2 |[M:3/4] [B,,B,]6 |[M:1/4] [B,,F,B,]>[B,,F,] | %6
[M:4/4] [B,,B,]2 [B,,B,]2 [B,,B,]2 [B,,B,]2 | [E,B,]2 [E,B,]2 [E,E]2 [E,E]2 | %8
 [F,DF] [F,B,D]3 [F,A,E]2 [F,A,E]2 |[M:3/4] [B,,B,]6 |[M:1/4] [B,,B,]>[B,,B,] | %11
[M:4/4] [F,CE]>[F,B,E] [F,A,E]4 [F,A,E]>[F,A,E] | [B,,B,]>[B,,B,] [B,,B,]4 [D,B,]>[D,B,] | %13
 [E,B,E] [E,G,E]3 [E,G,E]2 [E,B,E]2 |[M:3/4] [B,,B,]6 |[M:1/4] [B,,F,]>[B,,F,] | %16
[M:4/4] [B,,B,]2 [B,,B,]2 [D,B,]>[D,B,] [D,B,]>[D,B,] | %17
[M:9/8] [E,B,]2 [E,G,]- [E,G,] [C,C]2- [C,C][C,=B,]>[E,C] | %18
[M:5/4] [F,DF]2 [F,B,D]2 [F,A,E]3 [F,A,E]3 |[M:3/4] z2 G,2 F,2 |] %20
V:3
 x8 | x8 | x8 | x8 |[M:3/4] D6 |[M:1/4] x2 |[M:4/4] x8 | x8 | x8 |[M:3/4] x6 |[M:1/4] x2 | %11
[M:4/4] x8 | x8 | x8 |[M:3/4] x6 |[M:1/4] x2 |[M:4/4] x8 |[M:9/8] x9 |[M:5/4] x10 | %19
[M:3/4] [B,D]2 z2 z2 |] %20
V:4
 x8 | x8 | x8 | x8 |[M:3/4] x6 |[M:1/4] x2 |[M:4/4] x8 | x8 | x8 |[M:3/4] x6 |[M:1/4] x2 | %11
[M:4/4] x8 | x8 | x8 |[M:3/4] x6 |[M:1/4] x2 |[M:4/4] x8 |[M:9/8] x9 |[M:5/4] x10 |[M:3/4] B,,6 |] %20

